X: 26611
T: Mickey By The Fireside
R: reel
M: 4/4
K: Dmajor
d2dB AFAB|d2dB gfec|d2dB ADFA|1 gfed cABc:|2 gfed cdef||
d2ad fdad|d2ad gfec|d2ad fdad|cBAB cdef|
d2ad fdad|d2ad cdef|gbaf gefd|edcB ABcA||

